img/icons/linkedin.svg

<svg width="20" height="20" viewBox="0 0 20 20" fill="none" xmlns="http://www.w3.org/2000/svg">
<path d="M10 0C4.47708 0 0 4.47708 0 10C0 15.5229 4.47708 20 10 20C15.5229 20 20 15.5229 20 10C20 4.47708 15.5229 0 10 0ZM7.55208 14.1448H5.52708V7.62812H7.55208V14.1448ZM6.52708 6.82812C5.8875 6.82812 5.47396 6.375 5.47396 5.81458C5.47396 5.24271 5.9 4.80312 6.55312 4.80312C7.20625 4.80312 7.60625 5.24271 7.61875 5.81458C7.61875 6.375 7.20625 6.82812 6.52708 6.82812ZM14.9479 14.1448H12.9229V10.5333C12.9229 9.69271 12.6292 9.12187 11.8969 9.12187C11.3375 9.12187 11.0052 9.50833 10.8583 9.88021C10.8042 10.0125 10.7906 10.2 10.7906 10.3865V14.1437H8.76458V9.70625C8.76458 8.89271 8.73854 8.2125 8.71146 7.62708H10.4708L10.5635 8.53229H10.6042C10.8708 8.10729 11.524 7.48021 12.6167 7.48021C13.949 7.48021 14.9479 8.37292 14.9479 10.2917V14.1448V14.1448Z" fill="#D9D9D9"/>
</svg>

<?xml version="1.0" encoding="utf-8"?>
<!-- Generator: Adobe Illustrator 24.0.3, SVG Export Plug-In . SVG Version: 6.00 Build 0)  -->
<svg version="1.1" id="Слой_1" xmlns="http://www.w3.org/2000/svg" xmlns:xlink="http://www.w3.org/1999/xlink" x="0px" y="0px"
	 viewBox="0 0 20 20" style="enable-background:new 0 0 20 20;" xml:space="preserve">
<path d="M10,0C4.5,0,0,4.5,0,10c0,5.5,4.5,10,10,10c5.5,0,10-4.5,10-10C20,4.5,15.5,0,10,0z M7.6,14.1h-2V7.6h2V14.1z M6.5,6.8
	c-0.6,0-1.1-0.5-1.1-1c0-0.6,0.4-1,1.1-1c0.7,0,1.1,0.4,1.1,1C7.6,6.4,7.2,6.8,6.5,6.8z M14.9,14.1h-2v-3.6c0-0.8-0.3-1.4-1-1.4
	c-0.6,0-0.9,0.4-1,0.8c-0.1,0.1-0.1,0.3-0.1,0.5v3.8h-2V9.7c0-0.8,0-1.5-0.1-2.1h1.8l0.1,0.9h0c0.3-0.4,0.9-1.1,2-1.1
	c1.3,0,2.3,0.9,2.3,2.8V14.1L14.9,14.1z"/>
</svg>
